human-white-cane.svg

<svg fill="currentColor" viewBox="0 0 24 24"><path d="M8 4a2 2 0 1 1 4 0c0 1.11-.89 2-2 2a2 2 0 0 1-2-2m12.65 17.5L14.5 10.85c-.73 0-1.27-.2-1.86-.59-.6-.39-1.04-.88-1.33-1.46l-.74-1.57c-.18-.35-.42-.61-.74-.79-.29-.17-.6-.26-.92-.26s-.62.08-.91.22L3 9.23v4.4h1.86v-3.31l1.39-.78-.34 1.57c-.09.52-.14 1.04-.14 1.57v4.96l-2.39 3.23L4.86 22l2.79-3.75.17-3.25 1.68 2.34V22h1.85v-6.06L9.5 13.33v-.65c0-.44 0-.87.11-1.29l.35-1.2c.38.55.85 1.01 1.39 1.44.85.68 1.65.96 3 .95L19.78 22z"/></svg>

<svg  viewBox="0 0 24 24" fill="currentColor"><path  d="M8 4C8 2.9 8.9 2 10 2C11.11 2 12 2.9 12 4C12 5.11 11.11 6 10 6C8.9 6 8 5.11 8 4M20.65 21.5L14.5 10.85L14.5 10.85V10.85C13.77 10.85 13.23 10.65 12.64 10.26C12.04 9.87 11.6 9.38 11.31 8.8L10.57 7.23C10.39 6.88 10.15 6.62 9.83 6.44C9.54 6.27 9.23 6.18 8.91 6.18C8.59 6.18 8.29 6.26 8 6.4L3 9.23V13.63H4.86V10.32L6.25 9.54L5.91 11.11C5.82 11.63 5.77 12.15 5.77 12.68V17.64L3.38 20.87L4.86 22L7.65 18.25L7.82 15L9.5 17.34V22H11.35V15.94L9.5 13.33V12.68C9.5 12.24 9.5 11.81 9.61 11.39L9.96 10.19C10.34 10.74 10.81 11.2 11.35 11.63C12.2 12.31 13 12.59 14.35 12.58L19.78 22L20.65 21.5Z"/></svg>
